X: 030713
T: Cottage by the Road
S: "The Piper's Dream"
C: Pat McNulty
Z: B.Black
L: 1/8
M: 6/8
R: jig
K: Dmix
Add Add | cAG AGE | FEF GFG | Adc A2 G | 
Add Add | cAG AGE | FGA cAG | Adc d3 :|
fed fga | efd ecA | BcB BAF | Adf e3 |
fed fga | efd ecA | FGA cAG | Adc d3 :|
